X:1
T:The Kerry Bag
M:4/4
R:reel 
K:G
~G3B AGFG|d^cde dBAB|~G2ge dBGA|BA~A2 AcBA
~G3B AGFG|d^cde dBAB|~G2ge dBGB|AcBA G3:|
dg~g2 egdg|egdg Bgdg|dg~g2 gede|gabg~a2ge|
dg~g2 egdg|egdg Bgdg|dg~g2 gedB|AcBA G3:|
